lib/brands/icons/dart.svg

<svg xmlns="http://www.w3.org/2000/svg" fill="none" aria-hidden="true" viewBox="0 0 48 48"><g id="dart-Icon"><g id="Group"><path id="Vector" fill="#00D2B8" d="M15.7999 15.8008L13.4731 13.474L13.483 30.2928L13.5108 31.0789C13.5224 31.4487 13.591 31.8661 13.7055 32.2987L32.142 38.7998L36.7506 36.7579L36.7523 36.7523L15.7999 15.8008Z"/><path id="Vector_2" fill="#55DDCA" d="M13.7051 32.2988L13.7062 32.2999C13.7051 32.2923 13.7012 32.2839 13.7012 32.276C13.7012 32.2839 13.7023 32.2912 13.7051 32.2988ZM36.7503 36.758L32.1417 38.7999L13.7062 32.2999C14.0584 33.651 14.838 35.1698 15.677 36.0003L21.6935 41.9825L35.0712 42L36.7519 36.7524L36.7503 36.758Z"/><path id="Vector_3" fill="#0081C6" d="M6.30762 24.2974C5.71193 24.9333 6.0078 26.245 6.96687 27.2114L11.1038 31.3827L13.7054 32.2987C13.5909 31.8661 13.5223 31.4487 13.5107 31.0789L13.4829 30.2928L13.473 13.474L6.30762 24.2974Z"/><path id="Vector_4" fill="#0079B3" d="M32.2933 13.6901C31.8608 13.5795 31.4459 13.5112 31.0699 13.4994L30.2391 13.4707L13.4731 13.473L36.7545 36.7524H36.7565L38.8012 32.1393L32.2933 13.6901Z"/><path id="Vector_5" fill="#00A4E4" d="M32.272 13.6855C32.281 13.6875 32.288 13.69 32.2939 13.6908L32.2931 13.69C32.288 13.6875 32.281 13.6875 32.272 13.6855ZM35.9912 15.6652C35.1464 14.8133 33.6476 14.039 32.2939 13.6908L38.8009 32.1392L36.7562 36.7523H36.7543L41.751 35.1565L41.7617 21.4573L35.9912 15.6652Z"/><path id="Vector_6" fill="#00D2B8" d="M31.3818 11.1043L27.2117 6.96484C26.2473 6.00943 24.935 5.71215 24.3007 6.30615L13.4731 13.473L30.2391 13.4707L31.0699 13.4994C31.4459 13.5112 31.8608 13.5796 32.2933 13.6901L31.3818 11.1043Z"/></g></g></svg>

<svg xmlns="http://www.w3.org/2000/svg" fill="none" aria-hidden="true" viewBox="0 0 48 48"><path fill="#00D2B8" d="m15.8 15.8-2.327-2.326.01 16.819.028.786c.011.37.08.787.194 1.22l18.437 6.5 4.608-2.041.002-.006L15.8 15.801Z"/><path fill="#55DDCA" d="M13.705 32.299h.001c0-.007-.005-.015-.005-.023 0 .008.001.015.004.023Zm23.045 4.459L32.142 38.8l-18.436-6.5c.353 1.351 1.132 2.87 1.971 3.7l6.017 5.983L35.07 42l1.681-5.248-.002.006Z"/><path fill="#0081C6" d="M6.307 24.297c-.595.636-.3 1.948.66 2.914l4.137 4.172 2.601.916a5.55 5.55 0 0 1-.194-1.22l-.028-.786-.01-16.819-7.166 10.823Z"/><path fill="#0079B3" d="M32.293 13.69a5.754 5.754 0 0 0-1.223-.19l-.831-.03-16.766.003 23.281 23.28h.002l2.045-4.614-6.508-18.449Z"/><path fill="#00A4E4" d="m32.272 13.685.022.006v-.001l-.022-.005Zm3.72 1.98c-.846-.852-2.344-1.626-3.698-1.974L38.8 32.139l-2.045 4.613h-.002l4.997-1.596.01-13.699-5.77-5.792Z"/><path fill="#00D2B8" d="m31.382 11.104-4.17-4.14c-.965-.955-2.277-1.252-2.911-.658l-10.828 7.167 16.766-.002.83.028c.377.012.792.08 1.224.191l-.911-2.586Z"/></svg>
